svg/microscope_outline.svg

<?xml version="1.0" encoding="UTF-8" standalone="no"?>
<!-- Created with Inkscape (http://www.inkscape.org/) -->
<svg id="svg8" xmlns:rdf="http://www.w3.org/1999/02/22-rdf-syntax-ns#" xmlns="http://www.w3.org/2000/svg" height="48" width="48" version="1.1" xmlns:cc="http://creativecommons.org/ns#" xmlns:dc="http://purl.org/dc/elements/1.1/" viewBox="0 0 12.7 12.7">
 <title id="title4753">UIO-icon</title>
 <metadata id="metadata5">
  <rdf:RDF>
   <cc:Work rdf:about="">
    <dc:format>image/svg+xml</dc:format>
    <dc:type rdf:resource="http://purl.org/dc/dcmitype/StillImage"/>
    <dc:title>UIO-icon</dc:title>
    <dc:creator>
     <cc:Agent>
      <dc:title>Joaquín Urbano</dc:title>
     </cc:Agent>
    </dc:creator>
    <dc:rights>
     <cc:Agent>
      <dc:title>GPL</dc:title>
     </cc:Agent>
    </dc:rights>
   </cc:Work>
  </rdf:RDF>
 </metadata>
 <g id="layer1" transform="translate(0,-284.3)">
  <path id="rect4788" d="m18 4v2h-2v16h2v1h4v-1h2v-5.4844c4.8646 1.6748 8.1322 6.2498 8.1387 11.395-0.005 1.394-0.251 2.778-0.729 4.089h-15.41v4h11.541c-0.353 0.608-0.539 1.297-0.541 2 0.001555 0.70261 0.18815 1.3924 0.54102 2h-14.551c-0.991 0-0.99-0.007-0.99 0.984v3.016h23v-2.998c-0.91983-0.002051-0.97367-0.038158-0.6543-0.81641 0.425-0.65 0.653-1.409 0.654-2.186-0.001-0.917-0.317-1.806-0.895-2.518 1.211-2.286 1.866-4.837 1.872-7.445-0.006-7.283-4.928-13.643-11.977-15.475v-6.562h-2v-2zm0.51367 0.51367h2.9727v2h2l-0.034 6.5173c6.5481 1.2147 12.011 7.7584 12.018 14.842-0.00601 0.50262-0.00601 0.50262-0.019531 0.82227-0.009099 0.078192-0.01445 0.14581-0.021484 0.2168-0.13215 2.0968-0.65413 4.1552-1.6875 6.1621l-0.61523-0.45508c-0.638-0.402-1.375-0.617-2.128-0.619-0.97183 0.001722-1.9098 0.35719-2.6387 1l-0.5 0.48633h-11.347v-2.9727h14.576c0.44661 0 0.22526 0.001953 0.67188 0.001953 0.694-1.623 0.888-2.909 0.894-4.685-0.038-5.82-4.064-10.738-9.181-11.939l0.011719 5.5957h-2v1h-2.9727v-1h-2v-14.973h2zm-0.514 19.486v1h4v-1zm12.98 10.531c1.9223-0.0000981 3.4806 1.5582 3.4805 3.4805 0.0000981 1.9223-1.5582 3.4806-3.4805 3.4805-1.922 0-3.48-1.558-3.48-3.48 0-1.923 1.558-3.481 3.48-3.481zm-18.466 5.9808 15.348 0.001882c0.542 0.821 1.604 1.449 3.138 1.482v0.004c0.6885 0.032152 1.5312-0.045169 2.4171-0.79677 0.22754 0.27096 0.59112 0.36585 1.069 0.31277l-0.00016916 1.9701c-0.32041-0.00006499-21.651-0.00013037-21.972-0.00006539z" transform="matrix(.26458 0 0 .26458 0 284.3)" fill="#333"/>
 </g>
</svg>

<svg width="48" height="48" viewBox="0 0 48 48" fill="none" xmlns="http://www.w3.org/2000/svg">
<path d="M17.9997 3.99983V5.99981H15.9997V21.9996H17.9997V22.9996H21.9997V21.9996H23.9996V16.5153C28.8642 18.1901 32.1317 22.765 32.1382 27.9101C32.1332 29.3041 31.8872 30.6881 31.4092 31.9991H15.9994V35.999H27.5403C27.1873 36.607 27.0013 37.296 26.9993 37.999C27.0009 38.7016 27.1875 39.3914 27.5403 39.999H12.9895C11.9985 39.999 11.9995 39.992 11.9995 40.983V43.9989H34.9992V41.001C34.0794 40.9989 34.0256 40.9628 34.3449 40.1846C34.7699 39.5346 34.9979 38.7756 34.9989 37.9986C34.9979 37.0816 34.6819 36.1926 34.1039 35.4806C35.3149 33.1947 35.9699 30.6437 35.9759 28.0357C35.9699 20.7528 31.048 14.3929 23.9991 12.5609V5.999H21.9991V3.99902L17.9997 3.99983ZM18.5134 4.5135H21.486V6.51347H23.486L23.452 13.0307C30 14.2454 35.4629 20.789 35.4699 27.8725C35.4639 28.3751 35.4639 28.3751 35.4503 28.6948C35.4412 28.773 35.4359 28.8406 35.4289 28.9116C35.2967 31.0083 34.7747 33.0667 33.7414 35.0736L33.1262 34.6185C32.4882 34.2165 31.7512 34.0015 30.9982 33.9995C30.0264 34.0012 29.0884 34.3567 28.3595 34.9995L27.8595 35.4858H16.5127V32.5132H31.0885C31.5351 32.5132 31.3137 32.5151 31.7603 32.5151C32.4543 30.8921 32.6483 29.6062 32.6543 27.8302C32.6163 22.0103 28.5904 17.0923 23.4735 15.8913L23.4852 21.487H21.4852V22.4869H18.5125V21.487H16.5126V6.51414H18.5125L18.5134 4.5135ZM17.9994 23.9993V24.9992H21.9993V23.9993H17.9994ZM30.9792 34.5301C32.9015 34.53 34.4598 36.0883 34.4597 38.0106C34.4598 39.9329 32.9015 41.4911 30.9792 41.491C29.0572 41.491 27.4993 39.9331 27.4993 38.0111C27.4993 36.0881 29.0572 34.5301 30.9792 34.5301ZM12.5135 40.5108L27.8613 40.5127C28.4033 41.3337 29.4652 41.9617 30.9992 41.9947V41.9987C31.6877 42.0309 32.5304 41.9535 33.4163 41.202C33.6438 41.4729 34.0074 41.5678 34.4853 41.5147L34.4851 43.4848C34.1647 43.4847 12.8344 43.4847 12.5134 43.4847L12.5135 40.5108Z" fill="#333333"/>
</svg>
